X:1266
T:Bean a'ti ar Lar
M:C
L:1/8
K:D Major
B|AGFE D2FD|GEFE DBB2|AGFE D2FD|E2cA BGE:|!
d|cdec A3d|cdec AFEd|cded A3F|E2cA BGEd|!
cdec A3d|cdec AFEd|cdeg f2ec|ABcA Bdc|]!


